dist/svgs/devui-icons/editor/insert-ordered-list.svg

<?xml version="1.0" encoding="UTF-8"?>
<svg width="16px" height="16px" viewBox="0 0 16 16" version="1.1" xmlns="http://www.w3.org/2000/svg" xmlns:xlink="http://www.w3.org/1999/xlink">
    <title>edit icon/order-list</title>
    <desc>Created with Sketch.</desc>
    <g id="edit-icon/order-list" stroke="none" stroke-width="1" fill="none" fill-rule="evenodd">
        <g id="Group-6" fill="#293040">
            <g id="释义_富文本编辑/orderes-list-16x16">
                <path d="M5,1 L16,1 L16,2.5 L5,2.5 L5,1 Z M0,0 L2,0 L2,3 L3,3 L3,4 L0,4 L0,3 L1,3 L1,1 L0,1 L0,0 Z M5,7 L16,7 L16,8.5 L5,8.5 L5,7 Z M5,13 L16,13 L16,14.5 L5,14.5 L5,13 Z M0,15 L1.75,15 C1.88807119,15 2,14.8880712 2,14.75 C2,14.6119288 1.88807119,14.5 1.75,14.5 L0,14.5 L0,13.5 L1.75,13.5 C1.88807119,13.5 2,13.3880712 2,13.25 C2,13.1119288 1.88807119,13 1.75,13 L0,13 L0,12 L1.5,12 C2.32842712,12 3,12.6715729 3,13.5 C3,13.6753177 2.96992289,13.8436105 2.91464715,14 C2.96992289,14.1563895 3,14.3246823 3,14.5 C3,15.3284271 2.32842712,16 1.5,16 L0,16 L0,15 Z M2,7.5 C2,7.35127258 1.9375,7.22627258 1.84375,7.13845444 C1.76307119,7.05596441 1.63807119,7 1.5,7 C1.22385763,7 1,7.22385763 1,7.5 L1.62630326e-19,7.5 C0.147399902,6.5 0.647399902,6 1.5,6 C2.32842712,6 3,6.67157288 3,7.5 C3,8.07312512 2.50016007,8.55650475 2.22821045,8.74661255 C1.95626083,8.93672035 1.77325955,8.99789088 1.76769962,9 L3,9 L3,10 L0,10 L1.62630326e-19,9 C0.619515577,8.77257137 1.06188822,8.55939591 1.32711792,8.36047363 C1.6371448,8.12795347 1.87259637,7.91592701 1.96143498,7.69289356 C1.98627694,7.633537 2,7.5683711 2,7.5 Z" id="形状"></path>
            </g>
        </g>
    </g>
</svg>

<svg xmlns="http://www.w3.org/2000/svg" viewBox="0 0 16 16"><path fill-rule="evenodd" d="M5 1h11v1.5H5V1zM0 0h2v3h1v1H0V3h1V1H0V0zm5 7h11v1.5H5V7zm0 6h11v1.5H5V13zm-5 2h1.75a.25.25 0 100-.5H0v-1h1.75a.25.25 0 100-.5H0v-1h1.5a1.5 1.5 0 011.415 2A1.5 1.5 0 011.5 16H0v-1zm2-7.5a.49.49 0 00-.156-.362A.5.5 0 001 7.5H0C.147 6.5.647 6 1.5 6A1.5 1.5 0 013 7.5c0 .573-.5 1.057-.772 1.247-.272.19-.455.25-.46.253H3v1H0V9c.62-.227 1.062-.44 1.327-.64.31-.232.546-.444.634-.667A.498.498 0 002 7.5z"/></svg>
